lib/healthicons/icons/solid/symbols/death.svg

<svg fill="none" height="48" viewBox="0 0 48 48" width="48" xmlns="http://www.w3.org/2000/svg"><g fill="#333"><path d="m17.5016 32.4595c2.4853 0 4.4998-2.2386 4.4995-5-.0004-2.7615-2.0153-5-4.5006-5s-4.4998 2.2385-4.4994 5c.0003 2.7614 2.0152 5 4.5005 5z"/><path d="m34.6475 27.2064c.0021 2.6299-1.9861 4.7636-4.4407 4.7657s-4.4461-2.1281-4.4482-4.758c-.002-2.63 1.9861-4.7637 4.4407-4.7658s4.4461 2.1282 4.4482 4.7581z"/><path d="m25.4062 38c.9211 0 1.5938-.8295 1.5938-1.7241 0-1.9971-3-3.2759-3-3.2759s-3 1.3611-3 3.2759c0 .8944.6726 1.7241 1.5938 1.7241.6392 0 1.1135-.3722 1.4062-.9002.2928.528.7671.9002 1.4062.9002z"/><path clip-rule="evenodd" d="m13.1538 36.0025c-2.3996 0-2.3823-.5982-2.3118-3.0442.0139-.4813.0298-1.0342.0298-1.6681 0-1.5254-.4496-2.2461-.9929-3.1173-.82998-1.3307-1.87887-3.0123-1.8789-8.4493-.00009-18.29814 32.0001-18.29814 32 0 0 5.437-1.0489 7.1186-1.8789 8.4493-.5433.8712-.9929 1.5919-.9929 3.1173 0 .6339.0159 1.1867.0298 1.668.0705 2.446.0878 3.0443-2.3118 3.0443-2.8718 0-2.8718 2.5704-2.8718 4.2839 0 1.7136-3.8719 1.7136-7.9744 1.7136s-7.9744 0-7.9744-1.7136c0-1.7135 0-4.2839-2.8718-4.2839zm0-2c-.128 0-.2379-.0022-.3318-.0056-.0005-.0912.0003-.194.0023-.3104.0028-.1708.0088-.3796.0155-.6165.0142-.4987.032-1.1222.032-1.7798 0-2.1492-.7898-3.3932-1.3651-4.2995-.1208-.1903-.2322-.3657-.3248-.5314-.5077-.9088-1.1819-2.4765-1.1819-6.7357-.00002-3.9154 1.6801-6.7714 4.2126-8.7022 2.588-1.97321 6.1383-3.0214 9.7874-3.0214s7.1994 1.04819 9.7874 3.0214c2.5325 1.9308 4.2126 4.7868 4.2126 8.7022 0 4.2592-.6742 5.8269-1.1819 6.7357-.0926.1657-.2039.3411-.3247.5313-.5753.9062-1.3652 2.1504-1.3652 4.2996 0 .6576.0178 1.281.032 1.7796.0067.2367.0127.446.0155.6167.002.1164.0028.2192.0023.3104-.0939.0034-.2038.0056-.3318.0056-1.0204 0-1.9658.2313-2.7655.7615-.8019.5317-1.2951 1.2563-1.592 1.965-.419 1.0001-.4976 2.1217-.5117 2.9313-.1737.0475-.4145.0994-.7377.1461-1.3058.1889-3.1331.1936-5.2393.1936s-3.9335-.0047-5.2393-.1936c-.3232-.0467-.564-.0986-.7377-.1461-.0141-.8095-.0927-1.9312-.5117-2.9313-.2969-.7087-.7901-1.4333-1.592-1.965-.7997-.5302-1.7451-.7615-2.7655-.7615z" fill-rule="evenodd"/></g></svg>

<svg width="48" height="48" viewBox="0 0 48 48" fill="none" xmlns="http://www.w3.org/2000/svg">
<path d="M25.4062 38C26.3273 38 27 37.1705 27 36.2759C27 34.2788 24 33 24 33C24 33 21 34.3611 21 36.2759C21 37.1703 21.6726 38 22.5938 38C23.233 38 23.7073 37.6278 24 37.0998C24.2928 37.6278 24.7671 38 25.4062 38Z" fill="#333333"/>
<path d="M22 28C22 30.7614 19.9853 33 17.5 33C15.0147 33 13 30.7614 13 28C13 25.2386 15.0147 23 17.5 23C19.9853 23 22 25.2386 22 28Z" fill="#333333"/>
<path d="M30.5 33C32.9853 33 35 30.7614 35 28C35 25.2386 32.9853 23 30.5 23C28.0147 23 26 25.2386 26 28C26 30.7614 28.0147 33 30.5 33Z" fill="#333333"/>
<path fill-rule="evenodd" clip-rule="evenodd" d="M13.1538 36.0025C10.7542 36.0025 10.7715 35.4043 10.842 32.9583C10.8559 32.477 10.8718 31.9241 10.8718 31.2902C10.8718 29.7648 10.4222 29.0441 9.8789 28.1729C9.04892 26.8422 8.00003 25.1606 8 19.7236C7.99991 1.42546 40.0001 1.42546 40 19.7236C40 25.1606 38.9511 26.8422 38.1211 28.1729C37.5778 29.0441 37.1282 29.7648 37.1282 31.2902C37.1282 31.9241 37.1441 32.4769 37.158 32.9582C37.2285 35.4042 37.2458 36.0025 34.8462 36.0025C31.9744 36.0025 31.9744 38.5729 31.9744 40.2864C31.9744 42 28.1025 42 24 42C19.8975 42 16.0256 42 16.0256 40.2864C16.0256 38.5729 16.0256 36.0025 13.1538 36.0025ZM13.1538 34.0025C13.0258 34.0025 12.9159 34.0003 12.822 33.9969C12.8215 33.9057 12.8223 33.8029 12.8243 33.6865C12.8271 33.5157 12.8331 33.3069 12.8398 33.07C12.854 32.5713 12.8718 31.9478 12.8718 31.2902C12.8718 29.141 12.082 27.897 11.5067 26.9907C11.3859 26.8004 11.2745 26.625 11.1819 26.4593C10.6742 25.5505 10 23.9828 10 19.7236C9.99998 15.8082 11.6801 12.9522 14.2126 11.0214C16.8006 9.04819 20.3509 8 24 8C27.6491 8 31.1994 9.04819 33.7874 11.0214C36.3199 12.9522 38 15.8082 38 19.7236C38 23.9828 37.3258 25.5505 36.8181 26.4593C36.7255 26.625 36.6142 26.8004 36.4934 26.9906C35.9181 27.8968 35.1282 29.141 35.1282 31.2902C35.1282 31.9476 35.146 32.5709 35.1602 33.0695C35.1669 33.3062 35.1729 33.5158 35.1757 33.6865C35.1777 33.8029 35.1785 33.9057 35.178 33.9969C35.0841 34.0003 34.9742 34.0025 34.8462 34.0025C33.8258 34.0025 32.8804 34.2338 32.0807 34.764C31.2788 35.2957 30.7856 36.0203 30.4887 36.729C30.0697 37.7291 29.9911 38.8507 29.977 39.6603C29.8033 39.7078 29.5625 39.7597 29.2393 39.8064C27.9335 39.9953 26.1062 40 24 40C21.8938 40 20.0665 39.9953 18.7607 39.8064C18.4375 39.7597 18.1967 39.7078 18.023 39.6603C18.0089 38.8508 17.9303 37.7291 17.5113 36.729C17.2144 36.0203 16.7212 35.2957 15.9193 34.764C15.1196 34.2338 14.1742 34.0025 13.1538 34.0025Z" fill="#333333"/>
</svg>
